X:25b
T:25b. Juliana Garber Harmony
C:c 2003 Harry Bolick  
R:Breakdown
O:United States
A:Hastings On Hudson, New York
M:4/4
L:1/8
Q:160
K:G
 EE| "Am" E2  z  A AecA |"D" d2 z d dfed|"Am" edcB c2  eA  |\
M:2/4 
 "D/F#" A2  EE |
M:4/4
 "Am" E2  z  A AecA |"D" d2 z d dfed|"Am" edcB c2  eA  |\
M:2/4
"D" A2 eg |
M:4/4
|:"Am" a2ag ageB | "F" c2cB "Em"  G2 e2 | "Am" A2B2 c2BA| "G" G6BB| "Am" ec2c "G" dB2B|
"Em" BG2G  "D" AF2F|\
M:2/4
 "Em" E2>E2 |\
M:4/4
BAGE "Am7" cdBG| "D/F#" A8:|
